X:244
T: Step Back
O: English Morris Tune
L:1/8
M:C
K:D
"D"d2 cd "A"e2 f2|e2 dc "G"Bc d2|"A".c2 .A2 "G".B2 .G2|"A"A2 AG FG A2|
"D"d2 dc "G"B2 AG|"D"F2 A2 "Bm"D4|"D"F2 FD "A"E2 C2|"D"D4 D4:|
|:"D"AG FE D2 EF|"G"G2A2B2c2|"D"dc BA "G"G2A2|"Bm"Bc df "A"e2 ce|
"Bm"d2 Bd "A"c2 A2|"G"BG EF G2 B2|"D"AG FE D2 EF|"G"G4 G4:|
